!!!SOCIAL_FUNCTION:	songs with hunting dance
!!!PDT:	1956
!!!OTL: No_44_Cow_Creek_Hunting_Dance_Song_(k).krn
!!!LANG: Non-Tone
!!!LING_GROUP: Muskogean
!!!REG: Florida
**kern
*staff1
=1-
*clefF4
*k[b-]
*M2/4
4r
4F\
=2!|:
4c\
4c\
=3
8B-\L
16A\Jk
16r
8c\L
8B-\J
=4||
*M3/4
(8.A\L
16F\Jk)
4F\
8.A\L
16F\Jk
=5
2F\
4c\
=6||
*M2/4
8c\L
8A\J
4B-\
=7
8.A\L
16F\Jk
4B-\
=8||
*M3/4
8.A\L
16F\Jk
4F\
8.A\L
16F\Jk
=9||
*M2/4
2F\
=10
2F\
=11
4F\
8D\
8r
=12
2F\
=13
*M3/4
2F\
4F\
==:|!
*-
